assets/illustrations/path.svg

<svg width="1101" height="2825" viewBox="0 0 1101 2825" fill="none" xmlns="http://www.w3.org/2000/svg">
<path d="M91.3691 27C48.1691 20.6 73.3691 6.33333 91.3691 0H93.3691C61.3691 23 83.3691 8 212.869 38.5C316.469 62.9 343.702 120.333 344.369 146C349.536 187.667 333.169 291.1 226.369 371.5C-26.6309 513 163.869 560 250.869 573C320.469 583.4 355.536 625.667 364.369 645.5C385.369 712.167 387.169 875.2 226.369 994C25.3691 1142.5 159.869 1207 206.369 1224C243.569 1237.6 317.036 1291 345.869 1314C420.869 1379 483.869 1550.6 243.869 1609C-56.1309 1682 183.369 1781.5 237.369 1812C280.569 1836.4 354.036 1919.83 385.369 1958.5C418.036 2013.67 429.369 2149.7 213.369 2252.5C-2.63086 2355.3 393.833 2430.83 552.5 2446.5C678 2462.5 963.3 2493.3 1100.5 2488.5V2770V2824.5C960.5 2814.5 676.833 2724.33 552.5 2680.5C481.3 2665.7 192.702 2526.17 123.869 2488.5C-120.931 2334.1 53.2025 2216.83 170.869 2177.5C273.036 2145.5 411.569 2043.3 148.369 1890.5C-114.831 1737.7 53.7025 1619.5 170.869 1579.5C253.536 1550.17 373.969 1460.7 194.369 1337.5C-99.6309 1160.3 12.8691 1044.33 105.869 1008.5C130.869 997.667 192.769 953.3 240.369 862.5C299.869 749 207.369 673.5 52.3692 567C-71.6308 481.8 53.3692 392.167 131.369 358C174.536 331 269.869 260 305.869 192C341.869 124 249.536 70.6667 198.869 52.5C181.036 46.6667 134.569 33.4 91.3691 27Z" fill="#A2976B"/>
</svg>

<svg width="1101" height="2825" fill="none" xmlns="http://www.w3.org/2000/svg"><path d="M91.37 27c-43.2-6.4-18-20.667 0-27h2c-32 23-10 8 119.499 38.5 103.6 24.4 130.833 81.833 131.5 107.5 5.167 41.667-11.2 145.1-118 225.5-253 141.5-62.5 188.5 24.5 201.5 69.6 10.4 104.667 52.667 113.5 72.5 21 66.667 22.8 229.7-138 348.5-201 148.5-66.5 213-20 230 37.2 13.6 110.667 67 139.5 90 75 65 138 236.6-102 295-300 73-60.5 172.5-6.5 203 43.2 24.4 116.667 107.83 148 146.5 32.667 55.17 44 191.2-172 294-216 102.8 180.464 178.33 339.131 194 125.5 16 410.8 46.8 548 42v336c-140-10-423.667-100.17-548-144-71.2-14.8-359.798-154.33-428.631-192-244.8-154.4-70.666-271.67 47-311 102.167-32 240.7-134.2-22.5-287s-94.666-271 22.5-311c82.667-29.33 203.1-118.8 23.5-242-294-177.2-181.5-293.17-88.5-329 25-10.833 86.9-55.2 134.5-146 59.5-113.5-33-189-188-295.5-124-85.2 1-174.833 79-209 43.167-27 138.5-98 174.5-166s-56.333-121.333-107-139.5c-17.833-5.833-64.3-19.1-107.5-25.5Z" fill="#A2976B"/></svg>
